X: 4577
T: Bottle Of Whisky
R: jig
M: 6/8
K: Gmajor

|:G2A B2e|dBA ABB|d^cd gdB|ABA AGF|
G2A B2e|dBA Bde|fAB fAB|1 efe dBA:|2 efe def||
|:fge Bee|gee Bee|fdd Add|gfe dBA|
G2A B2e|dBA Bde|fAB fAB|1 efe def:|2 efe dBA||

